contributed-vectors/google_drive.svg

<?xml version="1.0" encoding="UTF-8" standalone="no"?>
<svg
   xmlns:dc="http://purl.org/dc/elements/1.1/"
   xmlns:cc="http://creativecommons.org/ns#"
   xmlns:rdf="http://www.w3.org/1999/02/22-rdf-syntax-ns#"
   xmlns:svg="http://www.w3.org/2000/svg"
   xmlns="http://www.w3.org/2000/svg"
   xmlns:sodipodi="http://sodipodi.sourceforge.net/DTD/sodipodi-0.dtd"
   xmlns:inkscape="http://www.inkscape.org/namespaces/inkscape"
   width="192"
   height="192"
   viewBox="0 0 192 192"
   fill="none"
   version="1.1"
   id="svg15"
   sodipodi:docname="google_drive.svg"
   inkscape:version="1.0.1 (3bc2e813f5, 2020-09-07)"
   inkscape:export-filename="/home/jphilippe/inkscape/icônes/delta-github/idées/google_drive.png"
   inkscape:export-xdpi="96"
   inkscape:export-ydpi="96">
  <metadata
     id="metadata19">
    <rdf:RDF>
      <cc:Work
         rdf:about="">
        <dc:format>image/svg+xml</dc:format>
        <dc:type
           rdf:resource="http://purl.org/dc/dcmitype/StillImage" />
      </cc:Work>
    </rdf:RDF>
  </metadata>
  <sodipodi:namedview
     pagecolor="#ffffff"
     bordercolor="#666666"
     borderopacity="1"
     objecttolerance="10"
     gridtolerance="10"
     guidetolerance="10"
     inkscape:pageopacity="0"
     inkscape:pageshadow="2"
     inkscape:window-width="1884"
     inkscape:window-height="1052"
     id="namedview17"
     showgrid="false"
     inkscape:object-paths="true"
     inkscape:snap-intersection-paths="true"
     inkscape:zoom="1"
     inkscape:cx="-167.74247"
     inkscape:cy="98.35509"
     inkscape:window-x="36"
     inkscape:window-y="0"
     inkscape:window-maximized="1"
     inkscape:current-layer="svg15"
     inkscape:document-rotation="0" />
  <path
     fill-rule="evenodd"
     clip-rule="evenodd"
     d="M 36.708,122.6 V 172 h 112.728 c 3.617,0 6.952,-1.954 8.722,-5.108 L 182.999,122.6 Z"
     fill="#9abeff"
     id="path2" />
  <path
     fill-rule="evenodd"
     clip-rule="evenodd"
     d="M 67.6118,19.9998 11.8081,117.685 c -1.742,3.049 -1.7567,6.789 -0.0387,9.852 L 36.7079,172 103.556,56.1103 Z"
     fill="#98dc9a"
     id="path4" />
  <path
     fill-rule="evenodd"
     clip-rule="evenodd"
     d="M 67.6118,19.9998 126.8,122.6 h 56.199 L 127.268,25.0396 c -1.781,-3.1164 -5.094,-5.0398 -8.683,-5.0398 z"
     fill="#f9de81"
     id="path6"
     sodipodi:nodetypes="ccccsc" />
  <defs
     id="defs13" />
  <path
     id="path847"
     d="M 126.49805 122.59961 L 151.73047 166.76953 C 152.55328 168.20929 153.71347 169.37981 155.06641 170.23828 C 156.31754 169.38343 157.39083 168.25997 158.1582 166.89258 L 182.99805 122.59961 L 126.49805 122.59961 z "
     style="fill:#fe837e;fill-opacity:1" />
  <path
     id="path906"
     d="M 67.6118,19.9998 96.037109,69.273438 123.45508,21.277344 C 121.98995,20.459365 120.32263,20 118.58594,20 Z"
     style="fill:#72a373;fill-opacity:1"
     sodipodi:nodetypes="ccccc" />
  <path
     id="path911"
     d="M 10.492188 122.59961 C 10.484512 124.30055 10.909546 126.00385 11.769531 127.53711 L 36.707031 172 L 65.203125 122.59961 L 10.492188 122.59961 z "
     style="fill:#748ebf;fill-opacity:1" />
</svg>

<svg xmlns="http://www.w3.org/2000/svg" width="192" height="192" fill="none"><path fill="#9abeff" fill-rule="evenodd" d="M36.708 122.6V172h112.728c3.617 0 6.952-1.954 8.722-5.108l24.841-44.292Z" clip-rule="evenodd"/><path fill="#98dc9a" fill-rule="evenodd" d="m67.612 20-55.804 97.685a10 10 0 0 0-.039 9.852L36.708 172l66.848-115.89Z" clip-rule="evenodd"/><path fill="#f9de81" fill-rule="evenodd" d="M67.612 20 126.8 122.6h56.199l-55.731-97.56a10 10 0 0 0-8.683-5.04z" clip-rule="evenodd"/><path d="m126.498 122.6 25.232 44.17a9.98 9.98 0 0 0 3.336 3.468 9.97 9.97 0 0 0 3.092-3.345l24.84-44.293h-56.5z" style="fill:#fe837e;fill-opacity:1"/><path d="m67.612 20 28.425 49.273 27.418-47.996a9.981 9.981 0 0 0-4.87-1.277Z" style="fill:#72a373;fill-opacity:1"/><path d="M10.492 122.6a9.995 9.995 0 0 0 1.278 4.937L36.707 172l28.496-49.4h-54.71z" style="fill:#748ebf;fill-opacity:1"/></svg>
